**kern	**kern	**dynam
*part1	*part1	*part1
*staff2	*staff1	*
*I"Piano	*	*
*clefF4	*clefF4	*
*k[f#c#]	*k[f#c#]	*
=1	=1	=1
4.FFF# 4.FF#	4.F# 4.d 4.f#	>
8BBB 8BB	8E 8c# 8e	]
4BBB 4BB	4D 4B 4d	.
=	=	=
!	!LO:TX:b:i:t=cresc.	!
4BBB 4BB	4F# 4B 4d 4f#	.
4BBB 4BB	4F# 4B 4d 4f#	.
4BBB 4BB	4F# 4B 4d 4f#	.
=	=	=
2.BBB-X 2.BB-X	2.Fn 2.B-X 2.d 2.fn	>
=	=	=
4BBB-X 4BB-X	4Fn 4B-X 4d 4fn	]
4BBB- 4BB-	4F 4B- 4d 4f	.
4BBB- 4BB-	4F 4B- 4d 4f	.
=	=	=
2.AAA 2.AA	2.Fn 2.A 2.d 2.fn	>
=	=	=
4GGG#X 4GG#X	4E 4Bn 4d 4e	] p
4GGG# 4GG#	4E 4B 4d 4e	.
4GGG# 4GG#	4E 4B 4d 4e	.
=	=	=
2.GGGn 2.GGn	2.E 2.B-X 2.c#X 2.e	<
=	=	=
4GGG 4GG	4E 4A 4c# 4e	[ >
4GGG 4GG	4E 4A 4c# 4e	.
4GGG 4GG	4E 4A 4c# 4e	]
=	=	=
*-	*-	*-
!!!system-decoration: {(s1,s2)}
